icon-themes/sifr_svg/cmd/lc_outlinebullet.svg

<svg viewBox="0 0 24 24" xmlns="http://www.w3.org/2000/svg"><path d="m4 2c-1.1045695 0-2 .8954305-2 2s.8954305 2 2 2 2-.8954305 2-2-.8954305-2-2-2zm4 0v2h14v-2zm0 3v2h14v-2zm0 3v2h7v-2zm8 3v1.503906c.628416.471311.998772 1.210576 1 1.996094 0 1.380712-1.119288 2.5-2.5 2.5-.786206-.000614-1.526324-.371035-1.998047-1h-1.501953v1.857422c1.371429 1.321851 2.804414 1.714844 4.115234 1.714844h2.742188l3.427734 3.427734h1.714844v-1.714844l-3.427734-3.427734v-2.742188c0-1.511964-.368607-2.743805-1.714844-4.115234zm-12 3c-1.1045695 0-2 .895431-2 2s.8954305 2 2 2 2-.895431 2-2-.8954305-2-2-2zm4 0v2h2v-2zm0 3v2h2v-2zm0 3v2h2v-2z" fill="#555753"/></svg>

<svg xmlns="http://www.w3.org/2000/svg" viewBox="0 0 24 24">
  <path
     style="fill:#555753"
     d="M 4 2 C 2.8954305 2 2 2.8954305 2 4 C 2 5.1045695 2.8954305 6 4 6 C 5.1045695 6 6 5.1045695 6 4 C 6 2.8954305 5.1045695 2 4 2 z M 8 2 L 8 4 L 22 4 L 22 2 L 8 2 z M 8 5 L 8 7 L 22 7 L 22 5 L 8 5 z M 8 8 L 8 10 L 15 10 L 15 8 L 8 8 z M 16 11 L 16 12.503906 C 16.628416 12.975217 16.998772 13.714482 17 14.5 C 17 15.880712 15.880712 17 14.5 17 C 13.713794 16.999386 12.973676 16.628965 12.501953 16 L 11 16 L 11 17.857422 C 12.371429 19.179273 13.804414 19.572266 15.115234 19.572266 L 17.857422 19.572266 L 21.285156 23 L 23 23 L 23 21.285156 L 19.572266 17.857422 L 19.572266 15.115234 C 19.572266 13.60327 19.203659 12.371429 17.857422 11 L 16 11 z M 4 14 C 2.8954305 14 2 14.895431 2 16 C 2 17.104569 2.8954305 18 4 18 C 5.1045695 18 6 17.104569 6 16 C 6 14.895431 5.1045695 14 4 14 z M 8 14 L 8 16 L 10 16 L 10 14 L 8 14 z M 8 17 L 8 19 L 10 19 L 10 17 L 8 17 z M 8 20 L 8 22 L 10 22 L 10 20 L 8 20 z "
     />
</svg>
